public/art/walls/fence-default.svg

<svg xmlns="http://www.w3.org/2000/svg" width="32" height="32" shape-rendering="crispEdges" viewBox="0 -0.5 9 16"><path stroke="#2f1e45" d="M2 0h5M1 1h1m5 0h1M0 2h1m7 0h1M0 3h1m7 0h1M0 4h1m7 0h1M0 5h1m7 0h1"/><path stroke="#c38e65" d="M2 1h1m3 0h1M1 2h1M1 3h1M1 4h1m5 0h1M2 5h5"/><path stroke="#944c4c" d="M3 1h3M2 2h1m3 0h1M2 3h1m3 0h1M3 4h3M3 9h1m-2 1h3m-3 1h3m-2 1h2m-2 1h2"/><path stroke="#b16c59" d="M3 2h3m1 0h1M3 3h3m1 0h1M2 4h1m3 0h1"/><path stroke="#7f3748" d="M1 5h1m5 0h1M2 6h5M3 8h3M1 9h2m1 0h3m-6 1h1m3 0h2m-6 1h1m3 0h2m-6 1h2m2 0h2m-5 1h1m2 0h2m-5 1h5m-4 1h3"/><path stroke="#140510" d="M0 6h1m7 0h1M0 7h1m7 0h1M0 8h1m7 0h1M0 9h1m7 0h1m-9 1h1m7 0h1m-9 1h1m7 0h1m-9 1h1m7 0h1m-9 1h1m7 0h1m-9 1h1m7 0h1m-8 1h1m5 0h1"/><path stroke="#662c2a" d="M1 6h1m5 0h1M1 7h7M1 8h2m3 0h2M7 9h1m-1 1h1m-1 1h1m-1 1h1m-7 1h1m5 0h1m-7 1h1m5 0h1m-6 1h1m3 0h1"/></svg>

<svg xmlns="http://www.w3.org/2000/svg" width="32" height="32" viewBox="0 -0.5 9 16" shape-rendering="crispEdges">
<path stroke="#2f1e45" d="M2 0h5M1 1h1M7 1h1M0 2h1M8 2h1M0 3h1M8 3h1M0 4h1M8 4h1M0 5h1M8 5h1" />
<path stroke="#c38e65" d="M2 1h1M6 1h1M1 2h1M1 3h1M1 4h1M7 4h1M2 5h5" />
<path stroke="#944c4c" d="M3 1h3M2 2h1M6 2h1M2 3h1M6 3h1M3 4h3M3 9h1M2 10h3M2 11h3M3 12h2M3 13h2" />
<path stroke="#b16c59" d="M3 2h3M7 2h1M3 3h3M7 3h1M2 4h1M6 4h1" />
<path stroke="#7f3748" d="M1 5h1M7 5h1M2 6h5M3 8h3M1 9h2M4 9h3M1 10h1M5 10h2M1 11h1M5 11h2M1 12h2M5 12h2M2 13h1M5 13h2M2 14h5M3 15h3" />
<path stroke="#140510" d="M0 6h1M8 6h1M0 7h1M8 7h1M0 8h1M8 8h1M0 9h1M8 9h1M0 10h1M8 10h1M0 11h1M8 11h1M0 12h1M8 12h1M0 13h1M8 13h1M0 14h1M8 14h1M1 15h1M7 15h1" />
<path stroke="#662c2a" d="M1 6h1M7 6h1M1 7h7M1 8h2M6 8h2M7 9h1M7 10h1M7 11h1M7 12h1M1 13h1M7 13h1M1 14h1M7 14h1M2 15h1M6 15h1" />
</svg>
